X:1
T:Title
%%score { ( 1 3 ) | ( 2 4 ) }
L:1/8
Q:1/4=100
M:6/8
K:F
V:1 treble nm="Grand Piano"
V:3 treble 
V:2 bass 
V:4 bass 
V:1
 c2 d c2 A | F2 G A3 | [DG]2 [DF] [DG]2 [DF] | D6 | F2 G A2 B | c2 d c3 | =B2 B A2 G | [Ec]6 | %8
w: James~M.~Black * * *||||||||
 c2 d c2 A | F2 G A3 | [DG]2 [DF] D2 [DF] | [Fd]6 | [Fd]2 [Fd] [Ee]2 [Ed] | c2 =B c3 | %14
w: ||||||
 [CFA]2 [A,C] [CFA]2 [B,CG] | [A,CF]6 | [FAc]2 [FBd] [FAc]2 [CFA] | [Ac]6 | c2 d c2 A | B6 | %20
w: ||||||
 [EB]2 [FB] [GB]2 [EG] | [FA]2 [GB] [Ac]2 A | G2 c e2 d | c3 z3 | [CFA]2 [CGB] [Ac]2 [Bd] | [Ac]6 | %26
w: ||||||
 d2 d [Be]2 [Be] | [Af]6 | [Ac]2 [Ac] [Af]2 [CFc] |[M:7/8] [Fe]2 [Fd] [Fd]3 [Fd] | %30
w: ||||
[M:3/4] [Fc]2 [FA] [EA]2 [EG] | [CF]6 |] %32
w: ||
V:2
 [F,A,F]2 [F,B,F] [F,A,F]2 [F,CF] | [F,A,C]2 [F,B,C] [F,CF]3 | [B,,B,]2 [B,,B,] [B,,B,]2 [B,,B,] | %3
 [B,,F,B,]6 | [F,A,C]2 [F,B,C][K:treble] [F,CF]2 [F,G,F] | [F,A,F]2 [F,B,F] [F,A,F]3 | %6
 [G,DF]2 [G,DF] [G,CF]2 [G,=B,F] | [C,C]6 | [F,A,F]2 [F,B,F] [F,A,F]2 [F,CF] | %9
 [F,A,C]2 [F,B,C] [F,CF]3 | [B,,B,]2 [B,,B,] [B,,B,]2 [B,,B,] | [B,,B,]6 | %12
 [B,,B,]2 [B,,B,] [C,B,]2 [B,,B,] | [F,A,F]2 [F,_A,F] [F,=A,F]3 | C,2 C, C,2 C, | F,6 | %16
 F,2 F, F,2 F, | F,2 F, .F,3 | [F,A,F]2 [F,B,F] [F,A,F]2 [F,CF] | E6 | [C,C]2 [C,C] [C,C]2 [C,C] | %21
 [F,C]2 [F,C] [F,F]2 [F,CF] | z3 .G3 | [C,G,]2 C, .C,3 | F,2 F, [F,F]2 [F,F] | [F,F]2 F, .F,3 | %26
 [B,F]2 [B,F][K:bass] [G,C]2 [G,C] | [F,C]2 F, .F,3 | [F,F]2 [F,F] [F,C]2 A,, | %29
[M:7/8] [B,,C]2 [B,,B,] [B,,B,]3 [B,,B,] |[M:3/4] [C,A,]2 [C,C] [C,C]2 [C,B,] | [F,A,]6 |] %32
V:3
 x6 | x6 | x6 | x6 | x6 | x6 | x6 | x6 | x6 | x6 | x6 | x6 | x6 | x6 | x6 | x6 | x6 | F2 F .F3 | %18
 x6 | z2 C .C3 | x6 | x6 | x6 | E2 [A,F] .[CGB]3 | x6 | z2 F .F3 | x6 | z2 C .C3 | x6 |[M:7/8] x7 | %30
[M:3/4] x6 | x6 |] %32
V:4
 x6 | x6 | x6 | x6 | x3[K:treble] x3 | x6 | x6 | x6 | x6 | x6 | x6 | x6 | x6 | x6 | x6 | x6 | x6 | %17
 x6 | x6 | [G,C]2 G, .G,3 | x6 | x6 | [G,CE]3 [G,,=B,]2- [G,,B,F] | x6 | x6 | x6 | x3[K:bass] x3 | %27
 x6 | x6 |[M:7/8] x7 |[M:3/4] x6 | x6 |] %32

